X:256
T: MAEDCHEN WILLST DU FREIEN
N: E0841
O: Europa, Mitteleuropa, Deutschland, Thueringen; Sachsen
R: Hochzeits -, Ehestands - Lied
M: 2/4
L: 1/8
K: F
 | cccd | c2A
c | cBGE | F3
c | cccd | c2A
A | BGFE | G2Fz

@@@ Tune index: 4569
